X: 15
T:La perte d'un amant
C:Les Brayauds: Couleurs
M:3/4
L:1/8
K:C
G ce|g2ga gf|g4e2|ed ef ed|c4d2|\
d2de fg|a2g2g2|ga gf ed|1 e2c:|2 cG c||
|:d ed|Gc cB cd|ed cd ed|Gc cB cd|1c2c:|2 c2 c||
